static/assets/icon.svg

<svg fill="none" height="180" viewBox="0 0 180 180" width="180" xmlns="http://www.w3.org/2000/svg"><g fill="#121212"><circle cx="135" cy="54" r="25.2"/><circle cx="61.2" cy="118.8" r="10.8"/><path clip-rule="evenodd" d="m90 180c49.706 0 90-40.294 90-90-98.0707 15.965-88.0523-24.4213-80.1775-56.1659 4.5555-18.3628 8.3935-33.8341-9.8225-33.8341-49.7056 0-90 40.2944-90 90 0 49.706 40.2944 90 90 90zm-28.8-32.4c15.9058 0 28.8-12.894 28.8-28.8s-12.8942-28.8-28.8-28.8-28.8 12.894-28.8 28.8 12.8942 28.8 28.8 28.8z" fill-rule="evenodd"/></g></svg>

<svg width="180" height="180" viewBox="0 0 180 180" fill="none" xmlns="http://www.w3.org/2000/svg">
<circle cx="135" cy="54" r="25.2" fill="#121212"/>
<circle cx="61.2" cy="118.8" r="10.8" fill="#121212"/>
<path fill-rule="evenodd" clip-rule="evenodd" d="M90 180C139.706 180 180 139.706 180 90C81.9293 105.965 91.9477 65.5787 99.8225 33.8341C104.378 15.4713 108.216 0 90 0C40.2944 0 0 40.2944 0 90C0 139.706 40.2944 180 90 180ZM61.2 147.6C77.1058 147.6 90 134.706 90 118.8C90 102.894 77.1058 90 61.2 90C45.2942 90 32.4 102.894 32.4 118.8C32.4 134.706 45.2942 147.6 61.2 147.6Z" fill="#121212"/>
</svg>
